X: 4267
M: C|
L: 1/8
K: A
(ed) |\
c2c2 cecA | d2d2 dfdB |\
c2c2 cecA |
dcde fgaf |\
ecAc dBGB | A2A2A2 ::\
(cd) |\
ecec agaf | ecef edcB |
ecAc dBGB | A2A2A2 :|


